X:258
T:My Love is in America
Z: id:dc-reel-238
M:C
L:1/8
K:D Mixolydian
E|FEFG ABcB|Add2 Add2|FEFG AdcA|G2AG FDDE|!
FEFG ABcB|Add^c defg|afge fdAF|GBAG FDD:|!
K:D Major
e|fdeg fdec|Add2 Adde|fdeg fdAF|GBAG FDDe|!
f3g fedB|Addc defg|afge fdAF|GBAG FDD:|!

